X:562
T:Oswestry Wake
S:Colin Hume's website,  colinhume.com  - chords can also be printed below the stave.
Q:3/8=120
M:6/8
L:1/8
K:G
P:A
|:d | "C"efg "D"f2e | "G"dcB "D"A2G | "G"gfe "Am"f2g | "D7"a3-a2d |\
"C"efg "D"f2e | "G"dcB "D"ABc | "G"BGB "D"AFA | "G"G3-G2 :|
P:B
|: A | "G"B>cd ded | "G"dBG dBG | "Am"A>BA c2d | "C"e3-edc |\
"G"Bcd "D"def | "Em"g3 "D"d3 | "Em"BGE "D"AFD | "G"G3-G2 :|
P:C
|: d | "G"gdB gdB | "G"gdB "D"A2G | "G"g2e "Am"f2g | "D"a3-a2f |\
"G"gba "Em"gfe | "Am"fag "D"fed | "C"egB "D"A2G | "G"G3-G2 :|

